X: 3722
T:Sailor's Wife
T:Leith County Dance
R:double jig
C:Kerry Elkin
M:6/8
L:1/8
K:Dm
|:DEF ~E2D|Ade f2g|agf edc|AcA GEC|!
DEF ~E2D|Ade f2g|agf ed^c|1 d3 dAF:|2 d3 d2e|!
|:fga fga|f~f2 agf|ecg ecg|e2e gfe|!
fga agf|efg gfg|def ed^c|1 d3 d2e:|2 d3 dAF|!
